svg/blobs-icons/no-decorations/pause.svg

<svg xmlns="http://www.w3.org/2000/svg" xmlns:xlink="http://www.w3.org/1999/xlink" preserveAspectRatio="xMidYMid" width="216" height="216" viewBox="0 0 216 216"><defs><style>.cls-3{fill:#0cb04a}.cls-5{fill:#060606;opacity:.35}</style></defs><g id="group-27svg"><path d="M73.468 215.539s-68.58.0-68.58.0C2.189 215.539-.011 213.353-.011 210.64V4.905c0-2.708 2.2-4.899 4.899-4.899h68.58c2.718.0 4.899 2.191 4.899 4.899V210.64c0 2.71300000000002-2.181 4.899-4.899 4.899z" id="path-1" class="cls-3" fill-rule="evenodd"/><path d="M210.63 215.539s-68.581.0-68.581.0C139.351 215.539 137.151 213.353 137.151 210.64V4.905C137.151 2.197 139.351.006 142.049.006H210.63C213.348.006 215.529 2.197 215.529 4.905V210.64C215.529 213.353 213.348 215.539 210.63 215.539z" id="path-2" class="cls-3" fill-rule="evenodd"/><path d="M73.469.006s-12.345.0-12.345.0.0 202.013.0 202.013c0 2.714-2.181 4.898-4.898 4.898H-.011S-.011 210.641-.011 210.641C-.011 213.354 2.189 215.538 4.888 215.538H73.469C76.186 215.538 78.367 213.354 78.367 210.641V4.905C78.367 2.197 76.186.006 73.469.006z" id="path-3" class="cls-5" fill-rule="evenodd"/><path d="M210.63.006s-12.344.0-12.344.0.0 202.013.0 202.013c0 2.714-2.18100000000001 4.898-4.899 4.898H137.151S137.151 210.641 137.151 210.641C137.151 213.354 139.351 215.538 142.049 215.538H210.63C213.348 215.538 215.529 213.354 215.529 210.641V4.905C215.529 2.197 213.348.006 210.63.006z" id="path-4" class="cls-5" fill-rule="evenodd"/></g></svg>

<svg xmlns="http://www.w3.org/2000/svg" xmlns:xlink="http://www.w3.org/1999/xlink" preserveAspectRatio="xMidYMid" width="216" height="216" viewBox="0 0 216 216">
  <defs>
    <style>

      .cls-3 {
        fill: #0cb04a;
      }

      .cls-5 {
        fill: #060606;
        opacity: 0.35;
      }
    </style>
  </defs>
  <g id="group-27svg">
    <path d="M73.468,215.539 C73.468,215.539 4.888,215.539 4.888,215.539 C2.189,215.539 -0.011,213.353 -0.011,210.640 C-0.011,210.640 -0.011,4.905 -0.011,4.905 C-0.011,2.197 2.189,0.006 4.888,0.006 C4.888,0.006 73.468,0.006 73.468,0.006 C76.186,0.006 78.367,2.197 78.367,4.905 C78.367,4.905 78.367,210.640 78.367,210.640 C78.367,213.353 76.186,215.539 73.468,215.539 Z" id="path-1" class="cls-3" fill-rule="evenodd"/>
    <path d="M210.630,215.539 C210.630,215.539 142.049,215.539 142.049,215.539 C139.351,215.539 137.151,213.353 137.151,210.640 C137.151,210.640 137.151,4.905 137.151,4.905 C137.151,2.197 139.351,0.006 142.049,0.006 C142.049,0.006 210.630,0.006 210.630,0.006 C213.348,0.006 215.529,2.197 215.529,4.905 C215.529,4.905 215.529,210.640 215.529,210.640 C215.529,213.353 213.348,215.539 210.630,215.539 Z" id="path-2" class="cls-3" fill-rule="evenodd"/>
    <path d="M73.469,0.006 C73.469,0.006 61.124,0.006 61.124,0.006 C61.124,0.006 61.124,202.019 61.124,202.019 C61.124,204.733 58.943,206.917 56.226,206.917 C56.226,206.917 -0.011,206.917 -0.011,206.917 C-0.011,206.917 -0.011,210.641 -0.011,210.641 C-0.011,213.354 2.189,215.538 4.888,215.538 C4.888,215.538 73.469,215.538 73.469,215.538 C76.186,215.538 78.367,213.354 78.367,210.641 C78.367,210.641 78.367,4.905 78.367,4.905 C78.367,2.197 76.186,0.006 73.469,0.006 Z" id="path-3" class="cls-5" fill-rule="evenodd"/>
    <path d="M210.630,0.006 C210.630,0.006 198.286,0.006 198.286,0.006 C198.286,0.006 198.286,202.019 198.286,202.019 C198.286,204.733 196.105,206.917 193.387,206.917 C193.387,206.917 137.151,206.917 137.151,206.917 C137.151,206.917 137.151,210.641 137.151,210.641 C137.151,213.354 139.351,215.538 142.049,215.538 C142.049,215.538 210.630,215.538 210.630,215.538 C213.348,215.538 215.529,213.354 215.529,210.641 C215.529,210.641 215.529,4.905 215.529,4.905 C215.529,2.197 213.348,0.006 210.630,0.006 Z" id="path-4" class="cls-5" fill-rule="evenodd"/>
  </g>
</svg>
